X:1
T:James Gibb editions
T:On this sweetest day of days - Barnby
%%score [ ( 1 2 ) ( 3 4 ) ]
L:1/8
Q:1/4=96
M:4/4
K:Eb
V:1 treble nm="Midi_74"
V:2 treble 
V:3 bass nm="Midi_74"
V:4 bass 
V:1
"^Part I""^Cloisters (777. 6)""^On this sweetest day of days""^Joseph Barnby\n(1838-96)" G2 G2 F2 G2 | %1
"^1" B2 A2 G4 || c2"^1" c2 B2 G2 | E2 A2 F4 || G3!<(! G B2 B2!<)! | e2 G2 (A2 c2) || %6
 !>!E2 !>!F2 !>!G2 !>!A2 |!>(! B4 B4!>)! |][K:Ab][M:4/4]"^Part II" E3 E A2 A2 | B2 E2 c4 || %10
 c3 c d2 c2 | B2"^1" A2 B4 || e3 e d2 c2 | B2 c2 d4 || c2 B2 A2 B2 | G4 A4 |] %16
[K:Eb]"^Part III" G2 G2 G2 G2 | B3 E E4 || A2 B2 G2 F2 | E2 F2 D4 || E3!<(! E F2 G2 | %21
 A2 B2!<)! (c2 d2) ||!f! e2 B2 A2 E2 | F4 E4 || A4 G4 |] %25
V:2
 E2 E2 D2 E2 | D2 D2 E4 || E2 F2 B,2 =B,2 | C2 F2 D4 || E3 E D2 D2 | E2 E2 E4 || %6
 !>!E2 !>!F2 !>!G2 !>!A2 | E2 D2 E4 |][K:Ab][M:4/4] C3 C E2 C2 | F2 E2 E4 || E3 E F2 E2 | %11
 =D2 D2 E4 || E3 E F2 _G2 | F2 F2 F4 || =E2 G2 F2 F2 | E4 E4 |][K:Eb] E2 E2 E2 E2 | E3 E E4 || %18
 E2 D2 E2 B,2 | B,2 =A,2 B,4 || G,3 E D2 E2 | E2 E2 (E2 F2) || E2 E2 E2 E2 | D4 E4 || E4 E4 |] %25
V:3
 B,2 B,2 B,2 B,2 | B,2 B,2 B,4 || C2 D2 E2 D2 | C2 C2 B,4 || B,3 B, A,2 A,2 | G,2 B,2 (A,2 F,2) || %6
"^Org." !>!E,2 !>!F,2 !>!G,2 !>!A,2 | B,4 B,4 |][K:Ab][M:4/4] A,3 A, A,2 A,2 | A,2 G,2 A,4 || %10
 A,3 A, A,2 A,2 | A,2 B,2 G,4 || A,3 A, A,2 E2 | D2 =A,2 (B,2 _A,2) || G,2 C2 C2 B,2 | %15
 (B,2 D2) C4 |][K:Eb] B,2 B,2 C2 C2 | B,3 B, B,4 || C2 B,2 B,2 B,2 | G,2 F,2 F,4 || %20
 E,3 G, B,2 B,2 | A,2 G,2 (C2 B,2) ||!f! B,2"^1" _D2 C2 A,2 | A,4 G,4 || C4 B,4 |] %25
V:4
 E,2 E,2 A,2 G,2 | F,2 B,,2 E,4 || A,2 A,2 G,2 G,,2 | C,2 A,,2 B,,4 || E,3 E, F,2 F,2 | %5
 G,2 _D,2 (C,2 A,,2) || [B,,G,]2 z2 z4 | [B,,F,]2- [B,,A,]2 [E,G,]4 |] %8
[K:Ab][M:4/4] A,,3 A,, C,2 F,2 | D,2 E,2 A,,4 || A,3 z D,2 A,2 | F,2 B,,2 E,4 || C,3 C, D,2 E,2 | %13
 F,2 F,2 B,,4 || C,2 =E,2 F,2 D,2 | E,4 A,,4 |][K:Eb] E,2 E,2 C,2 C,2 | G,,3 G, G,4 || %18
 F,2 B,,2 E,2 D,2 | C,2 C,2 B,,4 || C,3 C,- B,,2 E,2 | C,2 E,2 A,4 || G,2 G,,2 A,,2 C,2 | %23
 B,,4 E,4 || A,,4 E,4 |] %25

